X: 468
T: Mai Cai
%%abc-version 2.0
%%abcx-abcm2ps-target-version 5.9.1 (29 Sep 2008)
%%abc-creator hum2abc beta
%%abcx-conversion-date 2013/10/02 07:52:30
%%abc-edited-by Helmut Schaffrath
%%humdrum-veritas 2599731862
%%humdrum-veritas-data 2250070244
%%continueall 1
%%barnumbers 0
L: 1/8
M: 3/4
K: F
d d d c/ d/ [I:setbarnb 1]| 
f Ac4 | 
[M:2/4]d d/ c/ A c | 
[M:3/4]d AG4 | 
[M:2/4]G G/ F/ G A | 
c Ac2 | 
F D/ D/C2 | 
c2A3/ c/ | 
GF2D | 
C4 |]  



